!!!!SEGMENT: pl-sa--6-a-i-6--006_anonim--katarynka.krn
!!!cenid: 18xx:369
!!!COM: Anonim
!!!COM-rismID: pe30004985
!!!CDT:
!!!CNT:
!!!OTL: Katarynka
!!!PDT:
!!!AGN: Secular
!!!YEC: Copyright 2022 Narodowy Instytut Fryderyka Chopina (https://polishscores.org)
!!!YEM: License CC-BY-4.0 (https://creativecommons.org/licenses/by/4.0)
!!!SMS-siglum: PL-SA
!!!SMS-shelfmark: 6/A I 6
!!!SMS-shelfwork: 006 W
!!!SMS-variant:
!!!SMS-altvar:
!!!NIFC-rismSourceID: 1001065407
!!!NIFC-rismChildID: 1001065407
!!!NIFC-islandoraID: none
!!!URL-pdf-islandora:
!!!URL-scan: https://bc.bdsandomierz.pl/dlibra/publication/1233/edition/1194/content @EN{Scan in the Sandomierz Diocese Digital Library} @PL{Skany w portalu Cyfrowa Biblioteka Diecezjalna w Sandomierzu}
!!!IIIF:
!!!ONB-nifc: Str. 2, s. 4
!!!AIN: 1 piano
!!!key:
**kern	**kern
*part1	*part1
*staff2	*staff1
*Ipiano	*Iempty
*I"Piano	*
*clefF4	*clefG2
*k[]	*k[]
*C:	*C:
*M3/8	*M3/8
*>[A,A,B,B]	*>[A,A,B,B]
=1	=1
*>A	*>A
*all\right	*all\right
*clefG2	*
!	!LO:TX:b:t=Katarynka
8c/L	16cc\LL
.	16ee\
8g 8e/	16gg\
.	16aa\
8fJ 8d/	16ff\
.	16dd\JJ
=2	=2
!	!LO:TUP:a:problem=klamra łukowa
8eL 8c/	24cc\LL
.	24ee\
.	24gg\JJ
8f 8d/	8aa\L
8fJ 8d/	8ff\J
=3	=3
8eL 8c/	16cc\LL
.	16ee\
8e 8c/	16gg\
.	16aa\
8fJ 8d/	16ff\
.	16dd\JJ
=4	=4
8eL 8c/	16ee\LL
.	16cc\JJ
8d 8G/	8b/L
8dJ 8G/	8g/J
=5:|!|:	=5:|!|:
*>B	*>B
8eL 8c/	16cc\LL
.	16ee\J
8d 8G/	8cc\
8dJ 8G/	16a\L
.	16f\JJ
=6	=6
*rep	*
8eL 8c/	16cc\LL
.	16ee\J
8d 8G/	8cc\
8dJ 8G/	16a\L
.	16f\JJ
*Xrep	*
=7	=7
8eL 8c/	16cc\LL
.	16ee\
8d 8G/	16dd\
.	16ff\
8eJ 8c/	16aa\
.	16ff\JJ
=8	=8
8eL 8c/	16ee\LL
.	16cc\JJ
8d 8G/	8b/L
8dJ 8G/	8g/J
=:|!	=:|!
*-	*-
!!!system-decoration: {s1,s2}
!!!ENC: Marta Lawrence
!!!END: 2020-12-15
!!!ENC: Marcin Jachim
!!!END: 2020-06-15
